svgs/sharp-regular/bin-bottles-recycle.svg

<svg xmlns="http://www.w3.org/2000/svg" viewBox="0 0 640 512"><!--! Font Awesome Pro 6.6.0 by @fontawesome - https://fontawesome.com License - https://fontawesome.com/license (Commercial License) Copyright 2024 Fonticons, Inc. --><path d="M256 0l0 32 16 0 0 32-16 0L128 64l-16 0 0-32 16 0 0-32L256 0zM32 144l96-48 128 0 63.6 31.8L352 144s0 0 0 0l0 48 32 0 0-48 0-19.8-17.7-8.8L321.8 93.1l61.8-29 0-64.1 128 0 0 64.1 64 30 0 41.9 0 56 16.4 0 16 0 32 0 0 48-32 0L576 512 64 512 32 240 0 240l0-48 32 0 0-48zM533.3 464l26.4-224L80.3 240l26.4 224 426.6 0zM304 272l32 0 8.6 0 4.7 7.2 26.3 40-27.1 17L327.4 304l-14.8 0-20.3 30.5-27.1-17 25.6-38.4 4.8-7.1 8.6 0zm89.3 73.9l19.3 29.3 2.6 4 0 4.8 0 32 0 16-16 0-61.5 0 0-32 45.5 0 0-11.2-17.1-25.9 27.1-17zM305.7 432L240 432l-16 0 0-16 0-32 0-4.8 2.7-4 20.6-31 27.1 17L256 388.8l0 11.2 49.7 0 0 32z"/></svg>

<svg xmlns="http://www.w3.org/2000/svg" viewBox="0 0 640 512"><!--! Font Awesome Pro 6.4.0 by @fontawesome - https://fontawesome.com License - https://fontawesome.com/license (Commercial License) Copyright 2023 Fonticons, Inc. --><path d="M256 0V32h16V64H256 128 112V32h16V0H256zM32 144l96-48H256l63.6 31.8L352 144h0v48h32V144 124.2l-17.7-8.8L321.8 93.1l61.8-29V0h128V64.1l64 30V136v56H592h16 32v48H608L576 512H64L32 240H0V192H32V144zM533.3 464l26.4-224H80.3l26.4 224H533.3zM304 272h32 8.6l4.7 7.2 26.3 40-27.1 17L327.4 304H312.6l-20.3 30.5-27.1-17 25.6-38.4 4.8-7.1H304zm89.3 73.9l19.3 29.3 2.6 4V384v32 16h-16H337.7V400h45.5V388.8l-17.1-25.9 27.1-17zM305.7 432H240 224V416 384v-4.8l2.7-4 20.6-31 27.1 17L256 388.8V400h49.7v32z"/></svg>
